X: 46
M: 6/8
L: 1/8
K: A
|:\
vA2(uB/c/ e2.f) | ve2(uc B3) | vA2(uB/c/ e2.c) | vB3 uE3 |\
vA2(uB/c/ e2.f) | ve2(uc BAB) | {cd}vc3 uA3 | (A3- A2)E :|
"*"|:\
vA2uA A2A | G2G G2G | F2A E2C | B,2A, B,2C |\
(vA,B,C E2)uF | vE2(uC B,A,B,) | C3 A,3 | A,3- A,3 :|
P: * second time bowings
| vA2uA- A2uA | vG2uG- G2uG | "etc."y y6 y6 y6 y6 y6 y6 y6 y6
P: "Scordatura" version for AEae tuning:
|:\
"*"|:\
bit wha Maggie o' Ham wis ah'm never fun oot.  It wid seem ta wis
dat he might hae been \"osed fir da Shaalds o' Foula dance at ee
time as he is dat kind o' a t\"un.  Noo we're written him twa wyes,
da first wye is wi da strings as du usually sets dem bit da Foula
man it I heard playin' him hed his two back strings set to A and E.


